icons/hyprland-light.svg

<svg width="256" height="256" viewBox="0 0 256 256" fill="none" xmlns="http://www.w3.org/2000/svg">
<path d="M196 0H60C26.8629 0 0 26.8629 0 60V196C0 229.137 26.8629 256 60 256H196C229.137 256 256 229.137 256 196V60C256 26.8629 229.137 0 196 0Z" fill="#F4F2ED"/>
<path d="M138.178 17.0099C138.835 17.7062 139.254 18.0428 139.544 18.4686C144.812 26.2668 150.001 34.1245 155.349 41.87C158.426 46.3285 161.702 50.6517 164.988 54.9617C168.165 59.1364 171.519 63.1725 174.7 67.3472C178.378 72.1753 182.105 76.977 185.523 81.9867C189.901 88.4055 194.311 94.8375 198.098 101.603C201.318 107.355 203.891 113.5 206.352 119.635C208.094 123.978 209.262 128.565 210.509 133.093C211.086 135.192 211.247 137.406 211.584 139.568C212 142.215 212.706 144.861 212.748 147.515C212.864 154.425 213.464 161.359 212.26 168.24C210.934 175.827 208.714 183.09 205.412 190.097C202.073 197.175 198.029 203.713 193.077 209.762C188.591 215.244 183.323 219.772 177.626 223.923C173.443 226.969 169.019 229.556 164.312 231.612C160.076 233.461 155.711 234.942 151.218 236.196C141.074 239.021 130.789 239.642 120.43 238.912C114.186 238.474 107.868 237.708 101.921 235.46C97.0317 233.612 92.1065 231.787 87.432 229.477C83.7406 227.656 80.2043 225.372 76.9648 222.827C72.7159 219.491 68.5462 215.96 64.868 212.023C61.5724 208.498 58.7189 204.475 56.159 200.37C53.4606 196.037 51.0821 191.456 49.0401 186.773C46.8332 181.717 45.4081 176.394 44.2469 170.942C42.4391 162.458 43.023 153.966 43.3925 145.501C43.6036 140.64 44.8869 135.776 46.1173 131.027C47.4138 126.017 48.9807 121.041 50.8809 116.229C52.7843 111.411 54.9945 106.672 57.5247 102.154C60.7015 96.4843 64.2049 90.9829 67.8171 85.5772C71.0962 80.6666 74.6391 75.9276 78.1986 71.215C81.0653 67.4198 84.1926 63.8193 87.0955 60.0505C90.0315 56.2389 92.8553 52.3414 95.6956 48.4571C98.7009 44.3451 101.729 40.2496 104.632 36.065C108.314 30.7617 111.86 25.3626 115.508 20.0361C116.03 19.2738 116.788 18.6699 117.435 17.9933C117.564 18.066 117.692 18.1386 117.824 18.2112C117.851 18.7953 117.9 19.3794 117.9 19.9635C117.903 28.6529 117.95 37.3422 117.844 46.0315C117.828 47.3053 117.31 48.7211 116.617 49.8135C113.813 54.2522 110.946 58.6579 107.915 62.9448C105.041 67.0073 101.937 70.9081 98.9351 74.8781C96.461 78.1486 93.9967 81.4224 91.5061 84.6796C89.7775 86.9402 87.9631 89.1348 86.2741 91.4251C83.9122 94.6329 81.5403 97.8439 79.3367 101.161C76.6778 105.16 74.0618 109.2 71.6735 113.361C69.9647 116.338 68.6187 119.529 67.1903 122.658C66.3986 124.394 65.6696 126.169 65.0923 127.984C64.0696 131.205 63.2515 134.489 62.2289 137.71C59.3523 146.759 59.9626 156.069 60.6059 165.266C60.9324 169.936 62.6214 174.556 64.0366 179.09C66.0193 185.44 69.4204 191.07 73.2569 196.496C75.8762 200.202 78.8484 203.551 82.21 206.515C84.9777 208.95 87.9829 211.191 91.1399 213.089C94.7324 215.247 98.4733 217.303 102.396 218.722C106.582 220.237 111.006 221.359 115.419 221.917C120.674 222.58 126.028 222.438 131.336 222.689C136.265 222.92 141.045 221.933 145.828 220.993C151.901 219.798 157.45 217.178 162.844 214.306C169.293 210.874 174.713 206.013 179.46 200.535C184.312 194.935 188.386 188.638 190.979 181.724C193.714 174.431 195.994 166.883 195.647 158.867C195.459 154.534 195.697 150.175 195.298 145.868C195.004 142.696 194.103 139.561 193.265 136.462C192.282 132.822 191.276 129.169 189.914 125.661C188.558 122.166 186.826 118.813 185.124 115.463C183.616 112.497 182.049 109.55 180.288 106.731C178.144 103.302 175.874 99.9362 173.466 96.6889C169.821 91.7716 165.964 87.0128 162.279 82.1286C157.965 76.4094 153.66 70.6836 149.49 64.8589C145.891 59.836 142.46 54.6911 139.029 49.5494C138.478 48.7244 138.04 47.6386 138.03 46.6717C137.954 37.2696 137.98 27.8674 137.987 18.4653C137.987 18.1518 138.066 17.8349 138.178 17V17.0099Z" fill="url(#paint0_linear_529_24)"/>
<defs>
<linearGradient id="paint0_linear_529_24" x1="45.9425" y1="205.904" x2="231.976" y2="50.7708" gradientUnits="userSpaceOnUse">
<stop stop-color="#00A2F8"/>
<stop offset="1" stop-color="#00E5CF"/>
</linearGradient>
</defs>
</svg>

<svg xmlns="http://www.w3.org/2000/svg" width="256" height="256" fill="none"><path fill="#F4F2ED" d="M196 0H60C26.863 0 0 26.863 0 60v136c0 33.137 26.863 60 60 60h136c33.137 0 60-26.863 60-60V60c0-33.137-26.863-60-60-60"/><path fill="url(#paint0_linear_529_24)" d="M138.178 17.01c.657.696 1.076 1.033 1.366 1.459 5.268 7.798 10.457 15.655 15.805 23.401 3.077 4.459 6.353 8.782 9.639 13.092 3.177 4.174 6.531 8.21 9.712 12.385 3.678 4.828 7.405 9.63 10.823 14.64 4.378 6.419 8.788 12.85 12.575 19.616 3.22 5.752 5.793 11.897 8.254 18.032 1.742 4.343 2.91 8.93 4.157 13.458.577 2.099.738 4.313 1.075 6.475.416 2.647 1.122 5.293 1.164 7.947.116 6.91.716 13.844-.488 20.725-1.326 7.587-3.546 14.85-6.848 21.857-3.339 7.078-7.383 13.616-12.335 19.665-4.486 5.482-9.754 10.01-15.451 14.161-4.183 3.046-8.607 5.633-13.314 7.689-4.236 1.849-8.601 3.33-13.094 4.584-10.144 2.825-20.429 3.446-30.788 2.716-6.244-.438-12.562-1.204-18.509-3.452-4.89-1.848-9.815-3.673-14.489-5.983-3.691-1.821-7.228-4.105-10.467-6.65-4.25-3.336-8.419-6.867-12.097-10.804-3.296-3.525-6.15-7.548-8.709-11.653-2.698-4.333-5.077-8.914-7.119-13.597-2.207-5.056-3.632-10.379-4.793-15.831-1.808-8.484-1.224-16.976-.855-25.441.212-4.861 1.495-9.725 2.725-14.474 1.297-5.01 2.864-9.986 4.764-14.798 1.903-4.818 4.114-9.557 6.644-14.075 3.177-5.67 6.68-11.171 10.292-16.577 3.28-4.91 6.822-9.65 10.382-14.362 2.866-3.795 5.994-7.396 8.897-11.165 2.935-3.811 5.76-7.709 8.6-11.593 3.005-4.112 6.033-8.207 8.936-12.392 3.682-5.303 7.228-10.702 10.876-16.029.522-.762 1.28-1.366 1.927-2.043q.192.11.389.218c.027.584.076 1.168.076 1.753.003 8.689.05 17.378-.056 26.068-.016 1.273-.534 2.69-1.227 3.782-2.804 4.438-5.671 8.844-8.702 13.13-2.874 4.063-5.978 7.964-8.98 11.934-2.474 3.27-4.938 6.544-7.429 9.802-1.728 2.26-3.543 4.455-5.232 6.745-2.362 3.208-4.734 6.419-6.937 9.736-2.66 3.999-5.275 8.039-7.663 12.2-1.71 2.977-3.055 6.168-4.484 9.297-.791 1.736-1.52 3.511-2.098 5.326-1.022 3.221-1.84 6.505-2.863 9.726-2.877 9.049-2.266 18.359-1.623 27.556.326 4.67 2.015 9.29 3.43 13.824 1.983 6.35 5.384 11.98 9.22 17.406 2.62 3.706 5.592 7.055 8.954 10.019 2.768 2.435 5.773 4.676 8.93 6.574 3.592 2.158 7.333 4.214 11.256 5.633 4.186 1.515 8.61 2.637 13.023 3.195 5.255.663 10.609.521 15.917.772 4.929.231 9.709-.756 14.492-1.696 6.073-1.195 11.622-3.815 17.016-6.687 6.449-3.432 11.869-8.293 16.616-13.771 4.852-5.6 8.926-11.897 11.519-18.811 2.735-7.293 5.015-14.841 4.668-22.857-.188-4.333.05-8.692-.349-12.999-.294-3.172-1.195-6.307-2.033-9.406-.983-3.64-1.989-7.293-3.351-10.801-1.356-3.495-3.088-6.848-4.79-10.198-1.508-2.966-3.075-5.913-4.836-8.732a153 153 0 0 0-6.822-10.042c-3.645-4.917-7.502-9.676-11.187-14.56-4.314-5.72-8.619-11.445-12.789-17.27-3.599-5.023-7.03-10.168-10.461-15.31-.551-.825-.989-1.91-.999-2.877-.076-9.402-.05-18.805-.043-28.207 0-.313.079-.63.191-1.465z"/><defs><linearGradient id="paint0_linear_529_24" x1="45.943" x2="231.976" y1="205.904" y2="50.771" gradientUnits="userSpaceOnUse"><stop stop-color="#00A2F8"/><stop offset="1" stop-color="#00E5CF"/></linearGradient></defs></svg>
